actions/32/zoom-in.svg

<svg xmlns="http://www.w3.org/2000/svg" viewBox="0 0 32 32">
  <defs id="defs3051">
<style type="text/css" id="current-color-scheme">.ColorScheme-Text {color:#fcfcfc;}</style>
  </defs>
 <path style="fill:currentColor;fill-opacity:1;stroke:none" 
       d="M 4,8 V 9 H 5 V 8 C 5,5 8,5 8,5 H 9 V 4 H 8 C 8,4 4,4 4,8 Z m 7,-4 v 1 h 4 V 4 Z m 6,0 v 1 h 4 V 4 Z m 6,0 v 1 h 1 c 0,0 3,0 3,3 v 1 h 1 V 8 C 28,4 24,4 24,4 Z m -8.070312,6 v 1 h 5.363281 l -7.839844,7.837891 0.708984,0.708984 L 21,11.707031 v 5.363281 h 1 V 11.414062 10 Z M 4,11 v 4 h 1 v -4 z m 23,0 v 4 h 1 V 11 Z M 4,17 v 3 h 1 v -3 z m 23,0 v 4 h 1 V 17 Z M 4,24.473602 C 4,26.061589 4,28 7.5,28 11,28 11,26.040255 11,24.473602 11,22.906949 11,21 7.5,21 4,21 4,22.885616 4,24.473602 Z M 7.5,22 C 10,22 9.9940879,23.29478 10,24.473603 10.005912,25.652426 10,27 7.4973556,27 4.9947112,27 5,25.634659 5,24.473603 5,23.312547 5,22 7.5,22 Z M 27,23 v 1 c 0,0 0,3 -3,3 h -1 v 1 h 1 c 4,0 4,-4 4,-4 v -1 z m -15,4 v 1 h 3 v -1 z m 5,0 v 1 h 4 v -1 z"
     class="ColorScheme-Text"
     />
</svg>

<svg xmlns="http://www.w3.org/2000/svg" viewBox="0 0 32 32">
  <defs id="defs3051">
    <style type="text/css" id="current-color-scheme">
      .ColorScheme-Text {
        color:#d8d8d8;
      }
      </style>
  </defs>
 <path style="fill:currentColor;fill-opacity:1;stroke:none" 
       d="M 4 4 L 4 9 L 5 9 L 5 5 L 9 5 L 9 4 L 4 4 z M 11 4 L 11 5 L 15 5 L 15 4 L 11 4 z M 17 4 L 17 5 L 21 5 L 21 4 L 17 4 z M 23 4 L 23 5 L 27 5 L 27 9 L 28 9 L 28 5 L 28 4 L 27 4 L 23 4 z M 14.929688 10 L 14.929688 11 L 20.292969 11 L 12.453125 18.837891 L 13.162109 19.546875 L 21 11.707031 L 21 17.070312 L 22 17.070312 L 22 11.414062 L 22 10 L 14.929688 10 z M 4 11 L 4 15 L 5 15 L 5 11 L 4 11 z M 27 11 L 27 15 L 28 15 L 28 11 L 27 11 z M 4 17 L 4 20 L 5 20 L 5 17 L 4 17 z M 27 17 L 27 21 L 28 21 L 28 17 L 27 17 z M 4 21 L 4 23 L 4 28 L 9 28 L 11 28 L 11 21 L 4 21 z M 5 22 L 10 22 L 10 27 L 9 27 L 5 27 L 5 23 L 5 22 z M 27 23 L 27 27 L 23 27 L 23 28 L 28 28 L 28 23 L 27 23 z M 12 27 L 12 28 L 15 28 L 15 27 L 12 27 z M 17 27 L 17 28 L 21 28 L 21 27 L 17 27 z "
     class="ColorScheme-Text"
     />
</svg>
